!!!!SEGMENT: pl-kk--kk-i-1--016_anonim--communio-de-assumptione-b-m-v-optimam-partem-elegit.krn
!!!cenid: 15xx:729
!!!COM: Anonim
!!!COM-rismID: pe30004985
!!!CDT:
!!!CNT:
!!!OTL: Communio de Assumptione B.M.V./Optimam partem elegit
!!!PDT:
!!!AGN:
!!!SMS-siglum: PL-Kk
!!!SMS-shelfmark: Kk.I.1
!!!SMS-shelfwork: 016 W
!!!SMS-variant: Tenor 0479
!!!SMS-altvar: Tenor 0478
!!!NIFC-rismSourceID: 300257954
!!!NIFC-rismChildID: 300257970
!!!NIFC-islandoraID: pl-kk:1
!!!URL-pdf-islandora: https://repozytorium.nifc.pl/islandora/object/pl-kk%3A1/datastream/PDF/view
!!!URL-scan: https://polish.musicsources.pl/pl/lokalizacje/galeria/rekopisy/5736 @EN{Scan on Polish Music Sources Website} @PL{Skany w portalu Dziedzictwo Muzyki Polskiej w otwartym dostępie}
!!!IIIF: https://repozytorium.nifc.pl/islandora/object/pl-kk%3A1/datastream/IIIF/view
!!!ONB-nifc: UWAGA: Cantus (s. 77v, skan 0100), Altus (s. 93v, skan 0286), Tenor (s. 88v oraz 89v, skan 0478 oraz 0479), Bassus (s. 92v, skan 0654).
!!!AIN: 1 alto 1 bass 1 soprn 1 tenor
!!!key: G
**kern	**text	**kern	**text	**kern	**text	**kern	**text
*part4	*part4	*part3	*part3	*part2	*part2	*part1	*part1
*staff4	*staff4	*staff3	*staff3	*staff2	*staff2	*staff1	*staff1
*I"BASSVS	*	*I"TENOR	*	*I"ALTVS	*	*I"CANTVS	*
*I'B	*	*I'T	*	*I'A	*	*I'S	*
*ICvox	*	*ICvox	*	*ICvox	*	*ICvox	*
*Ibass	*	*Itenor	*	*Ialto	*	*Isoprn	*
*clefF4	*	*clefC4	*	*clefC4	*	*clefC3	*
*k[]	*	*k[]	*	*k[]	*	*k[]	*
*G:	*	*G:	*	*G:	*	*G:	*
*M2/1	*	*M2/1	*	*M2/1	*	*M2/1	*
*met(C|)	*	*met(C|)	*	*met(C|)	*	*met(C|)	*
=1	=1	=1	=1	=1	=1	=1	=1
!LO:TX:t=P:sześciolinia:problem	!	!	!	!	!	!	!
*lig	*	*	*	*	*	*	*
!	!	!LO:TX:a:B:t=Communio de Aſſumpt(ione) B. M. V.	!	!	!	!	!
!	!	!LO:TX:t=P:problem=szósta linia wykreślona 	!	!LO:TX:t=P:problem=szósta linia była wykreślona (wykreślenie wyblakło w kolejnych systemach)	!	!	!
!LO:TX:a:B:t=Communio de Aſſumpt(ione) B. M. V.	!	!LO:TX:t=P:sześciolinia:problem	!	!LO:TX:t=P:sześciolinia:problem	!	!	!
*	*	*	*	*lig	*	*	*
*xywh-#654:1557,515,4137,1055	*	*xywh-#478:1441,766,4050,872	*	*xywh-#286:1450,510,4058,998	*	*xywh-#100:1617,533,4046,1000	*
!	!	!	!	!	!	!LO:TX:a:B:t=Communio de Aſſumpt(ione) B. M. V.	!
!	!	!	!	!LO:TX:a:B:t=Communio de Aſſumpt(ione) B. M. V.	!	!LO:TX:t=P:sześciolinia:problem	!
1GG	O-	1G	O-	1B	O-	1d	O-
1C	.	1G	-pti-	1c	.	1e	-pti-
*Xlig	*	*	*	*Xlig	*	*	*
=2	=2	=2	=2	=2	=2	=2	=2
*	*	*lig	*	*	*	*	*
2C/	-pti-	1G	-mam	2c\	-pti-	2e\	-mam
2E\	-mam	.	.	2B\	-mam	1g	.
0D	par-	1A,	.	0d	par-	.	.
.	.	.	.	.	.	4f#X\	par-
.	.	.	.	.	.	4e\	.
!	!	!	!	!	!	!LO:TX:t=P:problem=# above	!
*	*	*Xlig	*	*	*	*	*
=3	=3	=3	=3	=3	=3	=3	=3
*	*	*lig	*	*	*	*	*
.	.	1A	par-	.	.	1f	.
2GG/	-te(m)	1G	.	2B,\	-tem	2g\	-tem
*	*ij	*	*	*	*ij	*	*ij
2C/	o-	.	.	2c/	o-	2e\	o-
*	*	*Xlig	*	*	*	*	*
=4	=4	=4	=4	=4	=4	=4	=4
*	*	*lig	*	*	*	*	*
1D	-pti-	1F	.	2A/	-pti-	2f\	-pti-
.	.	.	.	1B	-mam	2d\	-mam
1E	-mam	1G	.	.	.	4g\	par
.	.	.	.	.	.	4f\	.
.	.	.	.	2.c/	par-	2.e\	.
*	*	*Xlig	*	*	*	*	*
=5	=5	=5	=5	=5	=5	=5	=5
*lig	*	*lig	*	*	*	*	*
1F	par-	1A	.	.	.	.	.
.	.	.	.	4B/	.	8d\L	.
.	.	.	.	.	.	8c\J	.
.	.	.	.	1A	.	2d\	.
1E	.	1B	.	.	.	0e	tem
.	.	.	.	2G#X/	.	.	.
*Xlig	*	*Xlig	*	*	*	*	*
=6	=6	=6	=6	=6	=6	=6	=6
*	*	*lig	*	*	*	*	*
2AA/	-te(m)	1c	.	2A/	-tem	.	.
*	*Xij	*	*	*	*	*	*
2C/	e-	.	.	2G/	.	.	.
2C/	-le-	1G	.	2r	.	1e	o-
*	*	*	*	*	*Xij	*	*
2C/	-git	.	.	2c\	O-	.	.
*	*	*Xlig	*	*	*	*	*
=7	=7	=7	=7	=7	=7	=7	=7
1C	ſi-	1G,	-tem	2c\	-pti-	2e\	-pti-
.	.	.	.	2c\	-mam	2e\	-mam
*	*	*lig	*	*	*	*	*
2D/	-bi	1F	e-	2.f\	par-	2.a\	par-
1F	Ma-	.	.	.	.	.	.
.	.	.	.	8e\L	.	4g\	.
.	.	.	.	8d\J	.	.	.
=8	=8	=8	=8	=8	=8	=8	=8
.	.	1A	.	2c\	.	1f	.
2D/	-ri-	.	.	2d\	.	.	.
*	*	*Xlig	*	*	*	*	*
*	*	*lig	*	*	*	*	*
*	*	*	*	*	*	*custos:g	*
2C/	-a	1c	-le-	2G,/	-tem	1e	-tem
1c	e-	.	.	2A/	e-	.	.
*	*	*	*	*	*	*	*Xij
!	!	!	!	!	!	!LO:LB:g=original	!
=9	=9	=9	=9	=9	=9	=9	=9
*	*	*	*	*custos:A	*	*	*
*	*	*	*	*	*	*xywh-#100:1530,1533,4157,854	*
.	.	1d	.	1G	-le-	2g\	e-
2B\	-le-	.	.	.	.	2.g\	-le-
*	*	*Xlig	*	*	*	*	*
*	*	*lig	*	*xywh-#286:1372,1532,4261,806	*	*	*
!	!	!	!	!LO:LB:g=original	!	!	!
1A	-git	1c	.	2A/	-git	.	.
!	!	!	!	!	!	!LO:TX:t=P:problem=# above	!
.	.	.	.	.	.	8f#X\L	.
.	.	.	.	.	.	8e\J	.
.	.	.	.	2.c\	e-	2f#\	.
=10	=10	=10	=10	=10	=10	=10	=10
0G	ſi-	1d	.	.	.	1g	-git
.	.	.	.	8B\L	.	.	.
.	.	.	.	8A\J	.	.	.
.	.	.	.	4B\	.	.	.
.	.	.	.	4c\	.	.	.
*	*	*Xlig	*	*	*	*	*
*	*	*lig	*	*	*	*	*ij
*	*	*xywh-#478:1451,1602,4061,809	*	*	*	*	*
.	.	1B	-git	2d\	.	2r	.
.	.	.	.	1G	-le-	2d\	e-
=11	=11	=11	=11	=11	=11	=11	=11
2C/	-bi	1c	.	.	.	4e\	-le-
.	.	.	.	.	.	4f\	.
*	*ij	*	*	*	*	*	*
2C/	e-	.	.	2G/	-git	4g\	.
.	.	.	.	.	.	4e\	.
*custos:D	*	*	*	*	*	*	*
*	*	*Xlig	*	*	*	*	*
*xywh-#654:1495,1537,4199,828	*	*	*	*	*	*	*
2D/	-le-	1A	ſi-	2d\	ſi-	2f#X\	-git
!LO:LB:g=original	!	!	!	!	!	!	!
2C/	-git	.	.	2e\	-bi	1g	.
=12	=12	=12	=12	=12	=12	=12	=12
*	*	*lig	*	*	*	*	*Xij
1D	ſi-	1A	-bi	1d	Ma-	.	.
.	.	.	.	.	.	2f#X\	ſi-
2GG/	-bi	1G	.	4B\	-ri-	1g	-bi
*	*Xij	*	*	*	*	*	*
.	.	.	.	4c\	.	.	.
2G\	Ma-	.	.	4d\	.	.	.
.	.	.	.	4B\	.	.	.
*	*	*Xlig	*	*	*	*	*
=13	=13	=13	=13	=13	=13	=13	=13
1A	-ri-	1F	.	1c	.	2c/	Ma-
.	.	.	.	.	.	1f	-ri-
2F\	-a	1A	Ma-	2c\	-a	.	.
4D/	Ma-	.	.	2d\	Ma-	2f\	-a
4E\	.	.	.	.	.	.	.
=14	=14	=14	=14	=14	=14	=14	=14
*	*	*lig	*	*	*	*	*
4F\	.	1A	-ri-	2.c\	-ri-	2r	.
4G\	.	.	.	.	.	.	.
2A\	.	.	.	.	.	1a	e-
.	.	.	.	4d\	.	.	.
1E	-ri-	1B	.	1e	.	.	.
.	.	.	.	.	.	2g#X\	-le-
*	*	*Xlig	*	*	*	*	*
=15	=15	=15	=15	=15	=15	=15	=15
*	*	*lig	*	*	*	*	*
2AA/	-a	1c	.	1e	-a	2a\	-git
2A\	e-	.	.	.	.	2e/	ſi-
2E\	-le-	1B	.	2r	.	2g\	-bi
2G\	-git	.	.	2B\	e-	2d\	Ma-
*	*	*Xlig	*	*	*	*	*
=16	=16	=16	=16	=16	=16	=16	=16
*	*	*lig	*	*	*	*	*
2F\	ſi-	1A	.	2c\	-le-	1f	-ri-
2D/	-bi	.	.	2d\	-git-	.	.
1E	Ma-	1G	.	2B\	-ſi-	2e\	-a
.	.	.	.	2c#X\	-bi	1g	Ma-
*	*	*	*	*	*	*custos:f#	*
*	*	*Xlig	*	*	*	*	*
!	!	!	!	!	!	!LO:LB:g=original	!
=17	=17	=17	=17	=17	=17	=17	=17
0D	-ri-	1A	.	1d	Ma-	.	.
*	*	*	*	*	*	*xywh-#100:1548,2371,4157,825	*
!	!	!	!	!	!	!LO:TX:t=P:problem=# above	!
.	.	.	.	.	.	4f#X\	-ri-
.	.	.	.	.	.	4e\	.
*	*	*lig	*	*	*	*	*
.	.	1A	-a	1d	-ri-	4f#\	.
.	.	.	.	.	.	2g\	.
.	.	.	.	.	.	4f#X\	.
=18	=18	=18	=18	=18	=18	=18	=18
2GG/	-a	1G,	.	2B,\	-a	2g,\	-a
*	*	*	*	*	*ij	*	*
2C/	qu(ae)	.	.	1c	e-	2e\	qu(ae)
*	*	*Xlig	*	*	*	*	*
2C/	non	1G,	qu(ae)	.	.	2e\	non
2E\	au-	.	.	1c	-le-	2g\	au-
=19	=19	=19	=19	=19	=19	=19	=19
*	*	*lig	*	*	*	*	*
2F\	-fe-	1A	non	.	.	2f\	-fe-
*	*	*	*	*custos:G	*	*	*
2D/	-re-	.	.	2d\	.	2f\	-re-
*	*	*	*	*xywh-#286:1468,2398,4184,693	*	*	*
!	!	!	!	!LO:LB:g=original	!	!	!
2C/	-t(ur)	1c	.	2G/	-git	2e\	-t(ur)
2C/	ab	.	.	2G/	ſi-	2.g\	ab
*	*	*Xlig	*	*	*	*	*
=20	=20	=20	=20	=20	=20	=20	=20
*	*	*xywh-#478:1492,2413,4013,798	*	*	*	*	*
1D	e-	1A,	.	1d	.	.	.
.	.	.	.	.	.	8f\L	.
.	.	.	.	.	.	8e\J	.
.	.	.	.	.	.	2f\	.
*custos:D	*	*	*	*	*	*	*
1E	.	1G	au-	2.B\	-bi	1e	e-
.	.	.	.	4c\	.	.	.
!LO:LB:g=original	!	!	!	!	!	!	!
=21	=21	=21	=21	=21	=21	=21	=21
*xywh-#654:1472,2316,4091,828	*	*	*	*	*	*	*
2D/	-a	1F	-fe-	2d\	.	2A/	-a
*	*ij	*	*	*	*	*	*ij
1AA	qu(ae)	.	.	2c\	.	1c	qu(ae)
*	*	*lig	*	*	*	*	*
.	.	1E	-re-	2.A/	Ma-	.	.
2C/	non	.	.	.	.	2c/	non
.	.	.	.	4G/	.	.	.
=22	=22	=22	=22	=22	=22	=22	=22
1FF	au-	1F	.	2A/	.	1c	au-
.	.	.	.	1F	.	.	.
*	*	*Xlig	*	*	*	*	*
*	*	*custos:G	*	*	*	*	*
2C/	-fe-	1G	.	.	.	1c	-fe-
2C/	-re-	.	.	4E/	.	.	.
.	.	.	.	4D/	.	.	.
!	!	!LO:LB:g=original	!	!	!	!	!
=23	=23	=23	=23	=23	=23	=23	=23
*	*	*lig	*	*	*	*	*
1C	-t(ur)	1G	-tur	2E/	.	1c	-re-
.	.	.	.	2E/	-ri-	.	.
1D	ab	1F	.	2F/	.	2A/	-t(ur)
.	.	.	.	1A	.	1d	ab
*	*	*Xlig	*	*	*	*	*
=24	=24	=24	=24	=24	=24	=24	=24
*	*	*lig	*	*	*	*	*
1AA	e-	1E	.	.	.	.	.
.	.	.	.	2A/	-a	2c#X/	e-
*	*	*	*	*	*	*custos:f	*
2D/	-a	1D,	.	2F/	.	2d\	-a
*	*	*	*	*	*Xij	*	*Xij
!	!	!	!	!	!	!LO:LB:g=original	!
1D	in	.	.	1A	in	2f\	in
*	*Xij	*Xlig	*	*	*	*	*
=25	=25	=25	=25	=25	=25	=25	=25
*	*	*lig	*	*	*	*	*
.	.	1F	ab	.	.	2d\	(ae)-
*	*	*	*	*	*	*xywh-#100:1593,3181,4064,691	*
2D/	(ae)-	.	.	2A/	(ae)-	1f	-ter-
0.C	-ter-	1G,	.	0c	-ter-	.	.
.	.	.	.	.	.	4e\	.
.	.	.	.	.	.	4d\	.
*	*	*Xlig	*	*	*	*	*
=26	=26	=26	=26	=26	=26	=26	=26
.	.	1G	e-	.	.	4e\	.
.	.	.	.	.	.	4f\	.
.	.	.	.	.	.	4g\	.
.	.	.	.	.	.	4f\	.
*	*	*lig	*	*	*	*	*
.	.	1G	-a	1.c	-num	4e\	.
.	.	.	.	.	.	2f\	.
.	.	.	.	.	.	4e\	.
=27	=27	=27	=27	=27	=27	=27	=27
2FF/	-num	1A	.	.	.	2f\	-nu(m)
*	*ij	*	*	*	*	*	*ij
1F	in	.	.	2A/	in	2c/	in
*	*	*Xlig	*	*	*	*	*
*	*	*lig	*	*	*	*	*
.	.	1G	.	2B\	(ae)-	2d\	.
2E\	(ae)-	.	.	2c\	-ter-	2e\	(ae)-
=28	=28	=28	=28	=28	=28	=28	=28
0D	-ter-	1A,	.	1d	.	1f	-ter-
*	*	*Xlig	*	*	*	*	*
.	.	1F,	in	2.A/	-num	1d	.
.	.	.	.	4B\	.	.	.
=29	=29	=29	=29	=29	=29	=29	=29
*	*	*lig	*	*	*	*	*
2C/	-num	1G	(ae)-	2c\	.	2e\	-num
*	*Xij	*	*	*	*	*	*Xij
*	*	*	*	*custos:c#	*	*	*
1G	in	.	.	2B\	in	2g\	in
*	*	*	*	*xywh-#286:1464,3161,4124,663	*	*	*
!	!	!	!	!LO:LB:g=original	!	!	!
.	.	1A	.	2c#X\	(ae)-	2e\	(ae)-
2F/	(ae)-	.	.	2.d\	-ter-	2f\	-ter-
*	*	*Xlig	*	*	*	*	*
=30	=30	=30	=30	=30	=30	=30	=30
*	*	*xywh-#478:1481,3185,4050,698	*	*	*	*	*
1E	-ter-	1G	.	.	.	2g\	-nu(m)
!	!	!	!	!LO:TX:t=P:problem=# above	!	!	!
.	.	.	.	8c#X\L	.	.	.
.	.	.	.	8B\J	.	.	.
*	*	*	*	*	*	*	*ij
.	.	.	.	2c#\	.	2e/	in
*	*	*lig	*	*	*	*	*
1D	-nu(m)	1A	-ter-	1d	-num	4f\	(ae)-
.	.	.	.	.	.	4g\	.
.	.	.	.	.	.	4a\	.
.	.	.	.	.	.	4f\	.
=31	=31	=31	=31	=31	=31	=31	=31
*	*ij	*	*	*	*ij	*	*
2.C/	in	1c	.	2.e\	in	4g\	.
.	.	.	.	.	.	4e\	.
.	.	.	.	.	.	1a	-ter-
4D/	(ae)-	.	.	4f\	(ae)	.	.
*	*	*Xlig	*	*	*	*	*
*custos:AA	*	*	*	*	*	*	*
*	*	*lig	*	*	*	*	*
1E	-ter-	1B	.	1e	ter-	.	.
.	.	.	.	.	.	2g#X\	.
!LO:LB:g=original	!	!	!	!	!	!	!
=32	=32	=32	=32	=32	=32	=32	=32
*xywh-#654:1461,3156,4142,669	*	*	*	*	*	*	*
2AA/	-num	1A	.	1c	-num	2a\	-nu(m)
1A	in	.	.	.	.	1e	in
*	*	*Xlig	*	*	*	*	*
*	*	*lig	*	*	*	*	*
.	.	1c	.	2A/	(ae)-	.	.
2F\	(ae)-	.	.	1c	-ter-	2f\	(ae)-
=33	=33	=33	=33	=33	=33	=33	=33
1G	-ter-	1G	.	.	.	1d	-ter-
.	.	.	.	2B\	.	.	.
*	*	*Xlig	*	*	*	*	*
!	!	!LO:TX:t=P:problem= brevis zamiast longi (?)	!	!	!	!	!
2C/	-num	[1Gl\	-num	2c\	-num	2e\	-nu(m)
*	*Xij	*	*	*	*	*	*
1C	in	.	.	1e	in	1c	in
=34	=34	=34	=34	=34	=34	=34	=34
.	.	0G_	.	.	.	.	.
2BB/	(ae)-	.	.	2d\	ae-	2d\	(ae)-
1C	-ter-	.	.	1.c	-ter-	1e	-ter-
=35	=35	=35	=35	=35	=35	=35	=35
0GG	-num	0G]	.	.	.	0d	-nu(m)
.	.	.	.	4B\	.	.	.
.	.	.	.	4A\	.	.	.
!	!	!	!	!LO:N:vis=0	!	!	!
.	.	.	.	1B	-num	.	.
*	*	*	*	*	*Xij	*	*
==	==	==	==	==	==	==	==
*-	*-	*-	*-	*-	*-	*-	*-
!!!system-decoration: [(s1,s2,s3,s4)]
!!!RDF**kern: l = terminal long
!!!ENC: Mateusz Solarz
!!!END: 2022-02-22
!!!ENC: Natalia Wrzos
!!!END: 2022-03-22
!!!ENC-iiif: Elżbieta Cabała
!!!END-iiif: 2022-09-03
!!!YEC: Copyright 2022 Narodowy Instytut Fryderyka Chopina (https://polishscores.org)
!!!YEM: License CC-BY-4.0 (https://creativecommons.org/licenses/by/4.0)
